X: 13
T:Polka. GHW.013
M:2/4
L:1/8
Q:220
S:George H.Watson,MS,Swanton Abbott,Norfolk,1850-1880
R:Polka
O:England
A:Norfolk
N:DC marked at end of each part in M
Z:vmp.Taz Tarry
K:D
A|Adc>d|feB>e|dcB>A|BAF>A|Adc>d|feB>e|dcf>e|ddd:|!
K:A
:c|cea>b|agB>c|ddg>f|fec>d|efd>c|cBF>B|ABc>B|AAA:|!
K:G
z|d2Bg|g2f2|fcf>e|e2d2|d2gf|f2e2|e2ag|gfed|!
d2Bg|g2f2|fcf>e|e2d2|dgc>d|dc e2|dfb>a|g||
